public/library/sonicscan-text-light.svg

<svg width="493" height="152" viewBox="0 0 493 152" fill="none" xmlns="http://www.w3.org/2000/svg">
<g clip-path="url(#clip0_16090_6568)">
<mask id="mask0_16090_6568" style="mask-type:luminance" maskUnits="userSpaceOnUse" x="0" y="0" width="493" height="152">
<path d="M493 0H0V152H493V0Z" fill="white"/>
</mask>
<g mask="url(#mask0_16090_6568)">
<path d="M244.049 73.4613C241.202 72.0786 237.563 71.3793 233.239 71.3793H220.952C217.679 71.3793 215.06 70.4673 213.187 68.704L213.096 68.6127C211.269 66.6826 210.385 64.5087 210.385 61.9706C210.385 59.432 211.299 57.0912 213.096 55.1912C214.907 53.2608 217.39 52.288 220.45 52.288H250.687V45.7064H219.323C215.912 45.7064 212.989 46.4968 210.37 48.108C207.752 49.6432 205.772 51.6192 204.326 54.1424C202.88 56.6656 202.164 59.3408 202.164 62.3353C202.164 65.8466 202.91 68.8253 204.402 71.1967C206.001 73.6133 208.117 75.4226 210.873 76.7447C213.735 77.9607 217.13 78.584 220.952 78.584H233.879C236.056 78.584 237.989 79.0853 239.634 80.0733C241.309 80.9706 242.557 82.2473 243.379 83.8733C244.186 85.3933 244.567 86.944 244.567 88.7527C244.567 90.5613 244.125 92.3853 243.242 94.0426C242.359 95.7146 241.004 97.1127 239.238 98.2073C237.578 99.1953 235.553 99.6813 233.254 99.6813H204.159V106.248H234.64C238.294 106.248 241.369 105.427 244.064 103.74C246.866 102.037 248.967 99.9093 250.505 97.204C252.058 94.4226 252.804 91.5346 252.804 88.3727C252.804 84.6946 252.027 81.548 250.52 79.0553C249.104 76.5927 246.988 74.7533 244.064 73.4466L244.049 73.4613Z" fill="black"/>
<path d="M316.249 48.4728C311.529 45.6456 305.987 44.2016 299.79 44.2016C293.593 44.2016 288.066 45.6456 283.316 48.488C278.581 51.2392 274.774 55.0848 272.004 59.9184C269.233 64.6454 267.832 70.0567 267.832 75.9847C267.832 81.9127 269.233 87.3847 272.004 92.188C274.774 96.9306 278.581 100.776 283.316 103.619C287.838 106.263 293.121 107.661 298.998 107.768H299.79C305.987 107.783 311.513 106.4 316.249 103.633C321.075 100.791 324.882 96.9454 327.576 92.2186C330.348 87.4 331.748 81.9433 331.748 76C331.748 70.0567 330.348 64.5087 327.576 59.7816C324.882 55.0544 321.075 51.2544 316.249 48.488V48.4728ZM323.389 76C323.389 80.6814 322.4 84.9833 320.436 88.7986C318.472 92.5527 315.701 95.5774 312.214 97.812C308.742 100.031 304.434 101.201 299.775 101.201C295.116 101.201 290.944 100.061 287.336 97.812C283.849 95.5774 281.078 92.5374 279.099 88.7833C277.149 84.9833 276.145 80.6814 276.145 76C276.145 71.3186 277.135 67.0626 279.099 63.3386C281.063 59.4928 283.849 56.4072 287.351 54.1728C290.944 51.9232 295.131 50.7984 299.775 50.7984C304.419 50.7984 308.682 51.9384 312.214 54.188C315.716 56.4376 318.487 59.508 320.451 63.3233C322.4 67.0626 323.405 71.3186 323.405 76H323.389Z" fill="black"/>
<path d="M392.708 47.6368C388.537 45.372 383.619 44.2168 378.077 44.2168C372.534 44.2168 367.678 45.372 363.414 47.6672C359.136 49.8712 355.863 52.9112 353.411 56.924C351.067 60.9064 349.879 65.6334 349.879 70.984V106.279H358.101V71.1053C358.101 66.9713 359.029 63.3386 360.856 60.3288C362.745 57.2584 365.241 54.872 368.271 53.2152C371.347 51.5888 374.635 50.768 378.077 50.768C381.517 50.768 384.775 51.5888 387.76 53.2152C390.851 54.8568 393.347 57.2432 395.19 60.344C397.093 63.3534 398.052 66.956 398.052 71.0906V105.427L398.951 106.263H406.29V70.9687C406.29 65.6334 405.056 60.8912 402.635 56.9088C400.26 52.8808 397.017 49.856 392.723 47.6216L392.708 47.6368Z" fill="black"/>
<path d="M436.254 45.7064H427.91V106.263H436.254V45.7064Z" fill="black"/>
<path d="M474.379 55.5256C478.048 53.3824 482.205 52.288 486.757 52.288H493V45.7064H487.138C480.85 45.7064 475.156 47.0744 470.253 49.7648C465.35 52.44 461.422 56.1336 458.56 60.7088C455.728 65.1773 454.297 70.3153 454.297 75.9847C454.297 81.6546 455.728 86.8226 458.56 91.3826C461.407 95.8814 465.35 99.5146 470.253 102.205C474.547 104.545 479.418 105.899 484.778 106.187L484.733 106.263H493V99.6813H486.757C482.221 99.6813 478.048 98.6327 474.364 96.5653C470.801 94.4226 467.893 91.5193 465.746 87.9473C463.691 84.36 462.641 80.332 462.641 75.9693C462.641 71.6073 463.691 67.564 465.761 63.9767C467.893 60.42 470.801 57.5624 474.379 55.5104V55.5256Z" fill="black"/>
<path d="M91.2319 94.4373C62.5932 103.056 38.9022 115.627 24.0726 130.355L23.418 131.009C27.3614 134.748 31.6854 138.092 36.3596 140.935L37.3644 139.703C41.4144 134.748 45.7537 129.96 50.2756 125.445C62.4104 113.331 76.2957 102.843 91.2472 94.4226L91.2319 94.4373Z" fill="black"/>
<path d="M0 81.6694C1.14191 97.0367 6.83625 111.127 15.7736 122.588L16.1847 122.177C25.3656 113.103 37.3176 104.849 51.7361 97.66C64.3732 91.352 78.8831 85.9407 94.5196 81.6694H0Z" fill="black"/>
<path d="M58.2822 18.5136C83.9065 44.0952 116.154 61.0128 151.523 67.4273C147.26 29.5032 115.043 0 75.898 0C65.5603 0 55.7092 2.0672 46.7109 5.7912C50.365 10.1992 54.2628 14.4856 58.2822 18.5136Z" fill="black"/>
<path d="M24.0726 21.6448C38.9022 36.3888 62.5932 48.944 91.2319 57.5776C76.2804 49.1416 62.3951 38.6688 50.2604 26.5544C45.7537 22.0552 41.4144 17.2672 37.3493 12.2968L36.3444 11.0656C31.6702 13.908 27.3461 17.252 23.418 20.9912L24.0726 21.6448Z" fill="black"/>
<path d="M58.2822 133.487C54.2475 137.515 50.3498 141.801 46.7109 146.209C55.6939 149.933 65.5603 152 75.898 152C115.043 152 147.26 122.497 151.538 84.5573C116.169 90.972 83.9218 107.889 58.2975 133.471L58.2822 133.487Z" fill="black"/>
<path d="M51.7361 54.34C37.3176 47.1504 25.3656 38.8968 16.1847 29.8224L15.7736 29.412C6.83625 40.8728 1.14191 54.9632 0 70.3306H94.5043C78.8678 66.0593 64.3732 60.648 51.7208 54.3248L51.7361 54.34Z" fill="black"/>
</g>
</g>
<defs>
<clipPath id="clip0_16090_6568">
<rect width="493" height="152" fill="white"/>
</clipPath>
</defs>
</svg>

<svg xmlns="http://www.w3.org/2000/svg" width="493" height="152" fill="none" viewBox="0 0 493 152"><g clip-path="url(#a)"><mask id="b" width="493" height="152" x="0" y="0" maskUnits="userSpaceOnUse" style="mask-type:luminance"><path fill="#fff" d="M493 0H0v152h493z"/></mask><g fill="#000" mask="url(#b)"><path d="M244.049 73.461c-2.847-1.382-6.486-2.082-10.81-2.082h-12.287c-3.273 0-5.892-.912-7.765-2.675l-.091-.091c-1.827-1.93-2.711-4.104-2.711-6.642s.914-4.88 2.711-6.78c1.811-1.93 4.294-2.903 7.354-2.903h30.237v-6.582h-31.364c-3.411 0-6.334.79-8.953 2.402-2.618 1.535-4.598 3.511-6.044 6.034-1.446 2.524-2.162 5.199-2.162 8.193 0 3.512.746 6.49 2.238 8.862 1.599 2.416 3.715 4.226 6.471 5.548 2.862 1.216 6.257 1.839 10.079 1.839h12.927c2.177 0 4.11.501 5.755 1.49 1.675.897 2.923 2.173 3.745 3.8.807 1.52 1.188 3.07 1.188 4.879s-.442 3.632-1.325 5.29c-.883 1.672-2.238 3.07-4.004 4.164-1.66.988-3.685 1.474-5.984 1.474h-29.095v6.567h30.481c3.654 0 6.729-.821 9.424-2.508 2.802-1.703 4.903-3.83 6.441-6.536 1.553-2.781 2.299-5.67 2.299-8.831 0-3.678-.777-6.825-2.284-9.318-1.416-2.462-3.532-4.302-6.456-5.608zM316.249 48.473c-4.72-2.827-10.262-4.271-16.459-4.271s-11.724 1.444-16.474 4.286c-4.735 2.751-8.542 6.597-11.312 11.43-2.771 4.727-4.172 10.139-4.172 16.067s1.401 11.4 4.172 16.203c2.77 4.743 6.577 8.588 11.312 11.431 4.522 2.644 9.805 4.042 15.682 4.149h.792c6.197.015 11.723-1.368 16.459-4.135 4.826-2.842 8.633-6.688 11.327-11.414 2.772-4.819 4.172-10.276 4.172-16.219s-1.4-11.491-4.172-16.218c-2.694-4.728-6.501-8.528-11.327-11.294zM323.389 76c0 4.681-.989 8.983-2.953 12.799-1.964 3.754-4.735 6.778-8.222 9.013-3.472 2.219-7.78 3.389-12.439 3.389s-8.831-1.14-12.439-3.389c-3.487-2.235-6.258-5.275-8.237-9.029-1.95-3.8-2.954-8.102-2.954-12.783s.99-8.937 2.954-12.661c1.964-3.846 4.75-6.932 8.252-9.166 3.593-2.25 7.78-3.375 12.424-3.375s8.907 1.14 12.439 3.39c3.502 2.25 6.273 5.32 8.237 9.135 1.949 3.74 2.954 7.996 2.954 12.677zM392.708 47.637c-4.171-2.265-9.089-3.42-14.631-3.42-5.543 0-10.399 1.155-14.663 3.45-4.278 2.204-7.551 5.244-10.003 9.257-2.344 3.982-3.532 8.71-3.532 14.06v35.295h8.222V71.105c0-4.134.928-7.766 2.755-10.776 1.889-3.07 4.385-5.457 7.415-7.114 3.076-1.626 6.364-2.447 9.806-2.447 3.44 0 6.698.82 9.683 2.447 3.091 1.642 5.587 4.028 7.43 7.129 1.903 3.01 2.862 6.612 2.862 10.747v34.336l.899.836h7.339V70.969c0-5.336-1.234-10.078-3.655-14.06-2.375-4.028-5.618-7.053-9.912-9.287zM436.254 45.706h-8.344v60.557h8.344zM474.379 55.526c3.669-2.144 7.826-3.238 12.378-3.238H493v-6.582h-5.862c-6.288 0-11.982 1.368-16.885 4.059-4.903 2.675-8.831 6.369-11.693 10.944-2.832 4.468-4.263 9.606-4.263 15.276s1.431 10.838 4.263 15.398c2.847 4.498 6.79 8.132 11.693 10.822 4.294 2.34 9.165 3.694 14.525 3.982l-.045.076H493v-6.582h-6.243c-4.536 0-8.709-1.048-12.393-3.116a25 25 0 0 1-8.618-8.618c-2.055-3.587-3.105-7.615-3.105-11.978s1.05-8.405 3.12-11.992a23.7 23.7 0 0 1 8.618-8.467zM91.232 94.437c-28.639 8.619-52.33 21.19-67.16 35.918l-.654.654c3.943 3.739 8.267 7.083 12.942 9.926l1.004-1.232a191 191 0 0 1 12.912-14.258c12.134-12.114 26.02-22.602 40.971-31.022zM0 81.67a75.48 75.48 0 0 0 15.774 40.918l.41-.411c9.182-9.074 21.134-17.328 35.552-24.517 12.637-6.308 27.147-11.72 42.784-15.99zM58.282 18.514c25.624 25.581 57.872 42.499 93.241 48.913C147.26 29.503 115.043 0 75.898 0a76.1 76.1 0 0 0-29.187 5.791 188 188 0 0 0 11.571 12.723M24.073 21.645c14.83 14.744 38.52 27.299 67.159 35.933-14.952-8.436-28.837-18.91-40.972-31.024a192 192 0 0 1-12.91-14.257l-1.006-1.231a76 76 0 0 0-12.926 9.925zM58.282 133.487a180 180 0 0 0-11.571 12.722A76.1 76.1 0 0 0 75.898 152c39.145 0 71.362-29.503 75.64-67.443-35.369 6.415-67.616 23.332-93.24 48.914zM51.736 54.34c-14.418-7.19-26.37-15.443-35.551-24.518l-.411-.41A75.48 75.48 0 0 0 0 70.331h94.504c-15.636-4.272-30.13-9.683-42.783-16.006z"/></g></g><defs><clipPath id="a"><path fill="#fff" d="M0 0h493v152H0z"/></clipPath></defs></svg>
